icon/mi/town.svg

<?xml version="1.0" encoding="UTF-8"?>
<svg viewBox="0 0 15 15" xmlns="http://www.w3.org/2000/svg" id="town" height="1em" width="1em">
  <path d="m10.651 6.121c-.0445-.0357-.0999-.05516-.157-.05516s-.1125.01946-.157.05516l-2.245 1.808c-.02881.02323-.05204.05263-.06796.08603-.01593.03341-.02414.06997-.02404.10697v4.625c0 .0671.02666.1315.0741.1789.04745.0474.1118.0741.1789.0741h1.494c.0671 0 .13145-.0267.1789-.0741s.0741-.1118.0741-.1789v-1.747h1v1.747c0 .0671.0267.1315.0741.1789.0475.0474.1118.0741.1789.0741h1.494c.0671 0 .1315-.0267.1789-.0741s.0741-.1118.0741-.1789v-4.627c.0007-.03831-.0074-.07627-.0237-.11095s-.0404-.06514-.0703-.08905zm-.651 3.879h-1v-1h1zm2 0h-1v-1h1zm-6.29-9.184997c-.02299-.034654-.05419-.063081-.09083-.082746s-.07758-.029956-.11917-.029956c-.04158 0-.08252.010291-.11916.029956-.03665.019665-.06785.048092-.09084.082746l-3.248 4.120997c-.02752.0415-.04214.09021-.042.14v7.671c-.00013.0331.00626.0659.0188.0965s.031.0585.0543.082c.02331.0235.05102.0422.08154.0549.03053.0128.06327.0195.09636.0196h2.5c.06632-.0008.12964-.0277.17626-.0749.04661-.0471.07275-.1108.07274-.1771v-1.748h1v1.748c0 .0668.02655.1309.07381.1782s.11136.0738.17819.0738h.748v-6c-.00004-.07511.01684-.14926.04938-.21695.03255-.06769.07993-.12718.13862-.17405l1.812-1.609c0-.05-3.29-4.184997-3.29-4.184997zm-1.71 8.184997h-1v-1h1zm0-3h-1v-1h1zm2 3h-1v-1h1zm0-3h-1v-1h1z"/>
</svg>

<svg height="15" width="15" xmlns="http://www.w3.org/2000/svg"><path d="M10.651 6.121a.25.25 0 0 0-.314 0L8.092 7.929A.247.247 0 0 0 8 8.122v4.625a.253.253 0 0 0 .253.253h1.494a.253.253 0 0 0 .253-.253V11h1v1.747a.253.253 0 0 0 .253.253h1.494a.253.253 0 0 0 .253-.253V8.12a.25.25 0 0 0-.094-.2zM10 10H9V9h1zm2 0h-1V9h1zM5.71.815a.252.252 0 0 0-.42 0L2.042 4.936a.252.252 0 0 0-.042.14v7.671a.252.252 0 0 0 .251.253h2.5A.252.252 0 0 0 5 12.748V11h1v1.748a.252.252 0 0 0 .252.252H7V7a.5.5 0 0 1 .188-.391L9 5C9 4.95 5.71.815 5.71.815zM4 9H3V8h1zm0-3H3V5h1zm2 3H5V8h1zm0-3H5V5h1z"/></svg>
